; generated by Slic3r 1.0.0RC3 on 2014-03-26 at 16:34:53

; layer_height = 0.3
; perimeters = 2
; top_solid_layers = 2
; bottom_solid_layers = 2
; fill_density = 0.2
; perimeter_speed = 30
; infill_speed = 40
; travel_speed = 80
; nozzle_diameter = 0.35
; filament_diameter = 1.75
; extrusion_multiplier = 0.85
; perimeters extrusion width = 0.35mm
; infill extrusion width = 0.37mm
; solid infill extrusion width = 0.37mm
; top infill extrusion width = 0.37mm
; first layer extrusion width = 0.70mm

G21 ; set units to millimeters
M107
M190 S80 ; wait for bed temperature to be reached
M104 S220 ; set temperature
G28 ; home all axes
G1 Z5 F5000 ; lift nozzle
M109 S220 ; wait for temperature to be reached
G90 ; use absolute coordinates
G92 E0
M82 ; use absolute distances for extrusion
G1 F1800.000 E-1.00000
G92 E0
G1 Z0.350 F4800.000
G1 X93.240 Y110.350 F4800.000
G1 E1.00000 F1800.000
G1 X94.570 Y109.270 E1.13242 F540.000
G1 X96.040 Y108.400 E1.26444
G1 X97.630 Y107.770 E1.39663
G1 X99.290 Y107.380 E1.52842
G1 X101.000 Y107.250 E1.66097
G1 X129.000 Y107.250 E3.82510
G1 X130.710 Y107.380 E3.95764
G1 X132.370 Y107.770 E4.08944
G1 X133.960 Y108.400 E4.22162
G1 X135.430 Y109.270 E4.35365
G1 X136.760 Y110.350 E4.48607
G1 X147.260 Y120.350 E5.60677
G1 X148.470 Y121.710 E5.74747
G1 X149.450 Y123.250 E5.88855
G1 X150.160 Y124.920 E6.02881
G1 X150.600 Y126.690 E6.16978
G1 X150.750 Y128.500 E6.31015
G1 X150.750 Y151.500 E8.08782
G1 X150.610 Y153.260 E8.22428
G1 X150.200 Y154.980 E8.36095
G1 X149.520 Y156.610 E8.49745
G1 X148.600 Y158.110 E8.63346
G1 X147.450 Y159.450 E8.76994
G1 X146.110 Y160.600 E8.90642
G1 X144.610 Y161.520 E9.04242
G1 X142.980 Y162.200 E9.17893
G1 X141.260 Y162.610 E9.31559
G1 X139.500 Y162.750 E9.45205
G1 X90.500 Y162.750 E13.23927
G1 X88.740 Y162.610 E13.37573
G1 X87.020 Y162.200 E13.51240
G1 X85.390 Y161.520 E13.64890
G1 X83.890 Y160.600 E13.78491
G1 X82.550 Y159.450 E13.92139
G1 X81.400 Y158.110 E14.05787
G1 X80.480 Y156.610 E14.19387
G1 X79.800 Y154.980 E14.33038
G1 X79.390 Y153.260 E14.46704
G1 X79.250 Y151.500 E14.60350
G1 X79.250 Y128.500 E16.38117
G1 X79.400 Y126.690 E16.52155
G1 X79.840 Y124.920 E16.66252
G1 X80.550 Y123.250 E16.80277
G1 X81.530 Y121.710 E16.94385
G1 X82.740 Y120.350 E17.08455
G1 X93.172 Y110.415 E18.19801
G1 X93.670 Y110.810 F4800.000
G1 X94.920 Y109.780 E18.32320 F540.000
G1 X96.320 Y108.960 E18.44860
G1 X97.820 Y108.360 E18.57347
G1 X99.390 Y108.000 E18.69796
G1 X101.000 Y107.880 E18.82274
G1 X129.000 Y107.880 E20.98687
G1 X130.610 Y108.000 E21.11165
G1 X132.180 Y108.360 E21.23614
G1 X133.680 Y108.960 E21.36101
G1 X135.080 Y109.780 E21.48641
G1 X136.330 Y110.810 E21.61160
G1 X146.830 Y120.810 E22.73230
G1 X147.970 Y122.090 E22.86478
G1 X148.900 Y123.540 E22.99793
G1 X149.570 Y125.120 E23.13057
G1 X149.990 Y126.790 E23.26366
G1 X150.120 Y128.500 E23.39621
G1 X150.120 Y151.500 E25.17388
G1 X149.990 Y153.160 E25.30258
G1 X149.600 Y154.780 E25.43137
G1 X148.970 Y156.320 E25.55997
G1 X148.100 Y157.750 E25.68934
G1 X147.010 Y159.010 E25.81811
G1 X145.750 Y160.100 E25.94688
G1 X144.320 Y160.970 E26.07625
G1 X142.780 Y161.600 E26.20485
G1 X141.160 Y161.990 E26.33364
G1 X139.500 Y162.120 E26.46233
G1 X90.500 Y162.120 E30.24955
G1 X88.840 Y161.990 E30.37825
G1 X87.220 Y161.600 E30.50703
G1 X85.680 Y160.970 E30.63563
G1 X84.250 Y160.100 E30.76501
G1 X82.990 Y159.010 E30.89378
G1 X81.900 Y157.750 E31.02254
G1 X81.030 Y156.320 E31.15192
G1 X80.400 Y154.780 E31.28052
G1 X80.010 Y153.160 E31.40931
G1 X79.880 Y151.500 E31.53800
G1 X79.880 Y128.500 E33.31567
G1 X80.010 Y126.790 E33.44822
G1 X80.430 Y125.120 E33.58132
G1 X81.100 Y123.540 E33.71396
G1 X82.030 Y122.090 E33.84710
G1 X83.170 Y120.810 E33.97958
G1 X93.602 Y110.875 E35.09304
G1 F1800.000 E34.09304
G92 E0
G1 X99.318 Y114.438 F4800.000
G1 E1.00000 F1800.000
G1 X110.682 Y114.438 E1.87839 F540.000
G1 X113.062 Y116.818 E2.13847
G1 X113.062 Y132.595 E3.35790
G1 X113.428 Y132.961 E3.39791
G1 X116.572 Y132.961 E3.64094
G1 X116.938 Y132.595 E3.68095
G1 X116.938 Y116.818 E4.90039
G1 X119.318 Y114.438 E5.16046
G1 X130.682 Y114.438 E6.03885
G1 X133.062 Y116.818 E6.29893
G1 X133.062 Y124.072 E6.85964
G1 X133.428 Y124.438 E6.89965
G1 X141.182 Y124.438 E7.49900
G1 X143.562 Y126.818 E7.75907
G1 X143.562 Y153.182 E9.79682
G1 X141.182 Y155.562 E10.05689
G1 X88.818 Y155.562 E14.10418
G1 X86.438 Y153.182 E14.36426
G1 X86.438 Y126.818 E16.40200
G1 X88.818 Y124.438 E16.66207
G1 X96.572 Y124.438 E17.26143
G1 X96.938 Y124.072 E17.30144
G1 X96.938 Y116.818 E17.86215
G1 X99.251 Y114.505 E18.11498
G1 X99.576 Y115.063 F4800.000
G1 X110.424 Y115.063 E18.95336 F540.000
G1 X112.437 Y117.076 E19.17342
G1 X112.437 Y133.220 E20.42115
G1 X112.803 Y133.586 E20.46116
G1 X117.197 Y133.586 E20.80078
G1 X117.563 Y133.220 E20.84079
G1 X117.563 Y117.076 E22.08852
G1 X119.576 Y115.063 E22.30858
G1 X130.424 Y115.063 E23.14697
G1 X132.437 Y117.076 E23.36703
G1 X132.437 Y124.697 E23.95603
G1 X132.803 Y125.063 E23.99604
G1 X140.924 Y125.063 E24.62369
G1 X142.937 Y127.076 E24.84375
G1 X142.937 Y152.924 E26.84149
G1 X140.924 Y154.937 E27.06155
G1 X89.076 Y154.937 E31.06883
G1 X87.063 Y152.924 E31.28889
G1 X87.063 Y127.076 E33.28662
G1 X89.076 Y125.063 E33.50668
G1 X97.197 Y125.063 E34.13433
G1 X97.563 Y124.697 E34.17434
G1 X97.563 Y117.076 E34.76334
G1 X99.510 Y115.129 E34.97616
G1 X99.835 Y115.688 F4800.000
G1 X110.165 Y115.688 E35.77453 F540.000
G1 X111.812 Y117.335 E35.95458
G1 X111.812 Y133.845 E37.23060
G1 X112.178 Y134.211 E37.27061
G1 X117.822 Y134.211 E37.70683
G1 X118.188 Y133.845 E37.74684
G1 X118.188 Y117.335 E39.02286
G1 X119.835 Y115.688 E39.20291
G1 X130.165 Y115.688 E40.00128
G1 X131.812 Y117.335 E40.18133
G1 X131.812 Y125.322 E40.79863
G1 X132.178 Y125.688 E40.83864
G1 X140.665 Y125.688 E41.49458
G1 X142.312 Y127.335 E41.67463
G1 X142.312 Y152.665 E43.63235
G1 X140.665 Y154.312 E43.81240
G1 X89.335 Y154.312 E47.77967
G1 X87.688 Y152.665 E47.95972
G1 X87.688 Y127.335 E49.91745
G1 X89.335 Y125.688 E50.09750
G1 X97.822 Y125.688 E50.75344
G1 X98.188 Y125.322 E50.79345
G1 X98.188 Y117.335 E51.41074
G1 X99.769 Y115.754 E51.58355
G1 X100.094 Y116.313 F4800.000
G1 X109.906 Y116.313 E52.34191 F540.000
G1 X111.187 Y117.594 E52.48195
G1 X111.187 Y134.470 E53.78626
G1 X111.553 Y134.836 E53.82627
G1 X118.447 Y134.836 E54.35908
G1 X118.813 Y134.470 E54.39909
G1 X118.813 Y117.594 E55.70341
G1 X120.094 Y116.313 E55.84344
G1 X129.906 Y116.313 E56.60180
G1 X131.187 Y117.594 E56.74184
G1 X131.187 Y125.947 E57.38743
G1 X131.553 Y126.313 E57.42744
G1 X140.406 Y126.313 E58.11167
G1 X141.687 Y127.594 E58.25171
G1 X141.687 Y152.406 E60.16942
G1 X140.406 Y153.687 E60.30946
G1 X89.594 Y153.687 E64.23672
G1 X88.313 Y152.406 E64.37676
G1 X88.313 Y127.594 E66.29447
G1 X89.594 Y126.313 E66.43451
G1 X98.447 Y126.313 E67.11874
G1 X98.813 Y125.947 E67.15875
G1 X98.813 Y117.594 E67.80434
G1 X100.028 Y116.379 E67.93713
G1 X100.353 Y116.938 F4800.000
G1 X109.647 Y116.938 E68.65548 F540.000
G1 X110.562 Y117.853 E68.75551
G1 X110.562 Y135.094 E70.08812
G1 X110.928 Y135.461 E70.12813
G1 X119.072 Y135.461 E70.75754
G1 X119.438 Y135.094 E70.79755
G1 X119.438 Y117.853 E72.13015
G1 X120.353 Y116.938 E72.23018
G1 X129.647 Y116.938 E72.94853
G1 X130.562 Y117.853 E73.04856
G1 X130.562 Y126.572 E73.72243
G1 X130.928 Y126.938 E73.76245
G1 X140.147 Y126.938 E74.47497
G1 X141.062 Y127.853 E74.57500
G1 X141.062 Y152.147 E76.45270
G1 X140.147 Y153.062 E76.55273
G1 X89.853 Y153.062 E80.43997
G1 X88.938 Y152.147 E80.54000
G1 X88.938 Y127.853 E82.41770
G1 X89.853 Y126.938 E82.51773
G1 X99.072 Y126.938 E83.23025
G1 X99.438 Y126.572 E83.27026
G1 X99.438 Y117.853 E83.94414
G1 X100.287 Y117.004 E84.03693
G1 X100.612 Y117.563 F4800.000
G1 X109.388 Y117.563 E84.71526 F540.000
G1 X109.937 Y118.112 E84.77528
G1 X109.937 Y135.719 E86.13618
G1 X110.303 Y136.085 E86.17619
G1 X119.697 Y136.085 E86.90219
G1 X120.063 Y135.719 E86.94220
G1 X120.063 Y118.112 E88.30310
G1 X120.612 Y117.563 E88.36312
G1 X129.388 Y117.563 E89.04145
G1 X129.937 Y118.112 E89.10147
G1 X129.937 Y127.197 E89.80364
G1 X130.303 Y127.563 E89.84365
G1 X139.888 Y127.563 E90.58447
G1 X140.437 Y128.112 E90.64449
G1 X140.437 Y151.888 E92.48218
G1 X139.888 Y152.437 E92.54219
G1 X90.112 Y152.437 E96.38943
G1 X89.563 Y151.888 E96.44944
G1 X89.563 Y128.112 E98.28713
G1 X90.112 Y127.563 E98.34715
G1 X99.697 Y127.563 E99.08797
G1 X100.063 Y127.197 E99.12798
G1 X100.063 Y118.112 E99.83015
G1 X100.545 Y117.629 E99.88292
G1 X100.871 Y118.188 F4800.000
G1 X109.129 Y118.188 E100.52125 F540.000
G1 X109.312 Y118.371 E100.54125
G1 X109.312 Y136.344 E101.93044
G1 X109.678 Y136.710 E101.97045
G1 X120.322 Y136.710 E102.79305
G1 X120.688 Y136.344 E102.83306
G1 X120.688 Y118.371 E104.22225
G1 X120.871 Y118.188 E104.24226
G1 X129.129 Y118.188 E104.88058
G1 X129.312 Y118.371 E104.90059
G1 X129.312 Y127.822 E105.63105
G1 X129.678 Y128.188 E105.67106
G1 X139.629 Y128.188 E106.44017
G1 X139.812 Y128.371 E106.46018
G1 X139.812 Y151.629 E108.25786
G1 X139.629 Y151.812 E108.27786
G1 X90.371 Y151.812 E112.08509
G1 X90.188 Y151.629 E112.10509
G1 X90.188 Y128.371 E113.90277
G1 X90.371 Y128.188 E113.92278
G1 X100.322 Y128.188 E114.69188
G1 X100.688 Y127.822 E114.73190
G1 X100.688 Y118.371 E115.46236
G1 X100.804 Y118.254 E115.47512
G1 X101.350 Y118.850 F4800.000
G1 X108.650 Y118.850 E116.03934 F378.000
G1 X108.650 Y137.373 E117.47096
G1 X121.350 Y137.373 E118.45255
G1 X121.350 Y118.850 E119.88418
G1 X128.650 Y118.850 E120.44839
G1 X128.650 Y128.850 E121.22130
G1 X139.150 Y128.850 E122.03284
G1 X139.150 Y151.150 E123.75641
G1 X90.850 Y151.150 E127.48953
G1 X90.850 Y128.850 E129.21310
G1 X101.350 Y128.850 E130.02464
G1 X101.350 Y118.944 E130.79030
G1 X101.891 Y119.162 F4800.000
G1 X101.975 Y119.475 F4800.000
G1 X103.421 Y119.475 E130.90208 F540.000
G1 X103.475 Y119.640 E130.91548
G1 X102.957 Y120.016 E130.96492
G1 X102.475 Y121.500 E131.08554
G1 X102.957 Y122.984 E131.20616
G1 X104.220 Y123.901 E131.32677
G1 X105.780 Y123.901 E131.44739
G1 X107.043 Y122.984 E131.56800
G1 X107.525 Y121.500 E131.68862
G1 X107.043 Y120.016 E131.80924
G1 X106.525 Y119.640 E131.85868
G1 X106.579 Y119.475 E131.87208
G1 X108.025 Y119.475 E131.98386
G1 X108.025 Y137.998 E133.41548
G1 X121.975 Y137.998 E134.49366
G1 X121.975 Y119.475 E135.92529
G1 X123.421 Y119.475 E136.03707
G1 X123.475 Y119.640 E136.05047
G1 X122.957 Y120.016 E136.09991
G1 X122.475 Y121.500 E136.22052
G1 X122.957 Y122.984 E136.34114
G1 X124.220 Y123.901 E136.46176
G1 X125.780 Y123.901 E136.58237
G1 X127.043 Y122.984 E136.70299
G1 X127.525 Y121.500 E136.82361
G1 X127.043 Y120.016 E136.94423
G1 X126.525 Y119.640 E136.99367
G1 X126.579 Y119.475 E137.00707
G1 X128.025 Y119.475 E137.11885
G1 X128.025 Y129.475 E137.89175
G1 X138.525 Y129.475 E138.70330
G1 X138.525 Y150.525 E140.33027
G1 X137.079 Y150.525 E140.44205
G1 X137.025 Y150.360 E140.45545
G1 X137.543 Y149.984 E140.50489
G1 X138.025 Y148.500 E140.62551
G1 X137.543 Y147.016 E140.74613
G1 X136.280 Y146.099 E140.86675
G1 X134.720 Y146.099 E140.98736
G1 X133.457 Y147.016 E141.10797
G1 X132.975 Y148.500 E141.22859
G1 X133.457 Y149.984 E141.34921
G1 X133.975 Y150.360 E141.39865
G1 X133.921 Y150.525 E141.41205
G1 X91.475 Y150.525 E144.69273
G1 X91.475 Y129.475 E146.31970
G1 X93.921 Y129.475 E146.50877
G1 X93.975 Y129.640 E146.52218
G1 X93.457 Y130.016 E146.57161
G1 X92.975 Y131.500 E146.69223
G1 X93.457 Y132.984 E146.81285
G1 X94.720 Y133.901 E146.93347
G1 X96.280 Y133.901 E147.05408
G1 X97.543 Y132.984 E147.17470
G1 X98.025 Y131.500 E147.29532
G1 X97.543 Y130.016 E147.41594
G1 X97.025 Y129.640 E147.46538
G1 X97.079 Y129.475 E147.47878
G1 X101.975 Y129.475 E147.85719
G1 X101.975 Y119.569 E148.62285
G1 F1800.000 E147.62285
G92 E0
G1 X133.989 Y147.402 F4800.000
G1 E1.00000 F1800.000
G1 X134.923 Y146.723 E1.08923 F540.000
G1 X136.077 Y146.723 E1.17846
G1 X137.011 Y147.402 E1.26769
G1 X137.368 Y148.500 E1.35692
G1 X137.011 Y149.598 E1.44615
G1 X136.077 Y150.277 E1.53538
G1 X134.923 Y150.277 E1.62461
G1 X133.989 Y149.598 E1.71384
G1 X133.632 Y148.500 E1.80307
G1 X133.960 Y147.491 E1.88506
G1 X133.796 Y146.808 F4800.000
G1 X97.011 Y132.598 F4800.000
G1 X96.077 Y133.277 E1.97429 F540.000
G1 X94.923 Y133.277 E2.06352
G1 X93.989 Y132.598 E2.15275
G1 X93.632 Y131.500 E2.24198
G1 X93.989 Y130.402 E2.33121
G1 X94.923 Y129.723 E2.42044
G1 X96.077 Y129.723 E2.50967
G1 X97.011 Y130.402 E2.59890
G1 X97.368 Y131.500 E2.68813
G1 X97.040 Y132.509 E2.77012
G1 X97.204 Y133.192 F4800.000
G1 F1800.000 E1.77012
G92 E0
G1 X104.423 Y123.277 F4800.000
G1 E1.00000 F1800.000
G1 X103.489 Y122.598 E1.08923 F540.000
G1 X103.132 Y121.500 E1.17846
G1 X103.489 Y120.402 E1.26770
G1 X104.423 Y119.723 E1.35693
G1 X105.577 Y119.723 E1.44616
G1 X106.511 Y120.402 E1.53539
G1 X106.868 Y121.500 E1.62462
G1 X106.511 Y122.598 E1.71385
G1 X105.577 Y123.277 E1.80308
G1 X104.517 Y123.277 E1.88507
G1 X103.917 Y123.644 F4800.000
G1 F1800.000 E0.88507
G92 E0
G1 X123.132 Y121.500 F4800.000
G1 E1.00000 F1800.000
G1 X123.489 Y120.402 E1.08923 F540.000
G1 X124.423 Y119.723 E1.17846
G1 X125.577 Y119.723 E1.26769
G1 X126.511 Y120.402 E1.35692
G1 X126.868 Y121.500 E1.44616
G1 X126.511 Y122.598 E1.53539
G1 X125.577 Y123.277 E1.62462
G1 X124.423 Y123.277 E1.71385
G1 X123.489 Y122.598 E1.80308
G1 X123.161 Y121.589 E1.88507
G1 X122.626 Y121.133 F4800.000
G1 X122.418 Y123.147 F4800.000
G1 X127.582 Y128.311 E2.45185 F720.000
G1 X127.582 Y127.424 E2.52071
G1 X124.503 Y124.345 E2.85869
G1 X125.390 Y124.345 E2.92755
G1 X127.582 Y126.537 E3.16814
G1 X127.582 Y125.649 E3.23701
G1 X126.129 Y124.196 E3.39652
G1 X126.643 Y123.823 E3.44582
G1 X127.582 Y124.762 E3.54892
G1 X127.582 Y123.875 E3.61779
G1 X127.157 Y123.449 E3.66448
G1 X122.418 Y124.034 F4800.000
G1 X127.582 Y129.199 E4.23126 F720.000
G1 X128.301 Y129.918 F4800.000
G1 X138.082 Y139.699 E5.30472 F720.000
G1 X138.082 Y140.586 E5.37358
G1 X122.418 Y124.922 E7.09276
G1 X122.418 Y125.809 E7.16162
G1 X138.082 Y141.473 E8.88080
G1 X138.082 Y142.361 E8.94967
G1 X122.418 Y126.697 E10.66884
G1 X122.418 Y127.584 E10.73771
G1 X138.082 Y143.248 E12.45688
G1 X138.082 Y144.135 E12.52575
G1 X122.418 Y128.471 E14.24492
G1 X122.418 Y129.359 E14.31379
G1 X138.082 Y145.023 E16.03297
G1 X138.082 Y145.910 E16.10183
G1 X122.418 Y130.246 E17.82101
G1 X122.418 Y131.133 E17.88987
G1 X138.082 Y146.797 E19.60905
G1 X136.053 Y145.655 F4800.000
G1 X122.418 Y132.021 E21.10551 F720.000
G1 X122.418 Y132.908 E21.17437
G1 X135.165 Y145.655 E22.57344
G1 X134.403 Y145.781 E22.63338
G1 X122.418 Y133.795 E23.94881
G1 X122.418 Y134.683 E24.01768
G1 X133.889 Y146.154 E25.27670
G1 X133.375 Y146.528 E25.32600
G1 X122.418 Y135.570 E26.52862
G1 X122.418 Y136.457 E26.59749
G1 X132.988 Y147.027 E27.75754
G1 X132.770 Y147.697 E27.81219
G1 X122.418 Y137.345 E28.94837
G1 X122.418 Y138.232 E29.01723
G1 X132.552 Y148.367 E30.12952
G1 X132.364 Y149.066 E30.18572
G1 X121.739 Y138.441 E31.35186
G1 X120.852 Y138.441 E31.42073
G1 X132.181 Y149.770 E32.66411
G1 X131.294 Y149.770 E32.73297
G1 X119.965 Y138.441 E33.97635
G1 X119.077 Y138.441 E34.04521
G1 X130.406 Y149.770 E35.28859
G1 X129.519 Y149.770 E35.35746
G1 X118.190 Y138.441 E36.60083
G1 X117.303 Y138.441 E36.66970
G1 X128.631 Y149.770 E37.91308
G1 X127.744 Y149.770 E37.98194
G1 X116.415 Y138.441 E39.22532
G1 X115.528 Y138.441 E39.29418
G1 X126.857 Y149.770 E40.53756
G1 X125.969 Y149.770 E40.60643
G1 X114.640 Y138.441 E41.84980
G1 X113.753 Y138.441 E41.91867
G1 X125.082 Y149.770 E43.16205
G1 X124.195 Y149.770 E43.23091
G1 X112.866 Y138.441 E44.47429
G1 X111.978 Y138.441 E44.54315
G1 X123.307 Y149.770 E45.78653
G1 X122.420 Y149.770 E45.85540
G1 X111.091 Y138.441 E47.09877
G1 X110.204 Y138.441 E47.16764
G1 X121.533 Y149.770 E48.41102
G1 X120.645 Y149.770 E48.47988
G1 X109.316 Y138.441 E49.72326
G1 X108.429 Y138.441 E49.79212
G1 X119.758 Y149.770 E51.03550
G1 X138.082 Y138.811 F4800.000
G1 X129.189 Y129.918 E52.01157 F720.000
G1 X130.076 Y129.918 E52.08044
G1 X138.082 Y137.924 E52.95912
G1 X138.082 Y137.037 E53.02798
G1 X130.963 Y129.918 E53.80928
G1 X131.851 Y129.918 E53.87814
G1 X138.082 Y136.149 E54.56205
